icons/svg/shields/h_highway_crossing_shield.svg

<?xml version="1.0" encoding="UTF-8" standalone="no"?>
<!-- Created with Inkscape (http://www.inkscape.org/) -->

<svg
   xmlns:dc="http://purl.org/dc/elements/1.1/"
   xmlns:cc="http://creativecommons.org/ns#"
   xmlns:rdf="http://www.w3.org/1999/02/22-rdf-syntax-ns#"
   xmlns:svg="http://www.w3.org/2000/svg"
   xmlns="http://www.w3.org/2000/svg"
   xmlns:sodipodi="http://sodipodi.sourceforge.net/DTD/sodipodi-0.dtd"
   xmlns:inkscape="http://www.inkscape.org/namespaces/inkscape"
   version="1.0"
   width="16"
   height="16"
   id="svg2"
   sodipodi:version="0.32"
   inkscape:version="0.91 r13725"
   sodipodi:docname="h_highway_crossing_shield.svg"
   inkscape:output_extension="org.inkscape.output.svg.inkscape">
  <metadata
     id="metadata2975">
    <rdf:RDF>
      <cc:Work
         rdf:about="">
        <dc:format>image/svg+xml</dc:format>
        <dc:type
           rdf:resource="http://purl.org/dc/dcmitype/StillImage" />
        <cc:license
           rdf:resource="http://web.resource.org/cc/PublicDomain" />
        <dc:language>en</dc:language>
        <dc:title />
      </cc:Work>
    </rdf:RDF>
  </metadata>
  <sodipodi:namedview
     inkscape:window-height="1006"
     inkscape:window-width="1920"
     inkscape:pageshadow="2"
     inkscape:pageopacity="0.0"
     guidetolerance="10.0"
     gridtolerance="10.0"
     objecttolerance="10.0"
     borderopacity="1.0"
     bordercolor="#666666"
     pagecolor="#ffffff"
     id="base"
     inkscape:zoom="28.780137"
     inkscape:cx="6.2872699"
     inkscape:cy="9.3960449"
     inkscape:window-x="1920"
     inkscape:window-y="0"
     inkscape:current-layer="svg2"
     showgrid="false"
     inkscape:window-maximized="1" />
  <defs
     id="defs4">
    <inkscape:perspective
       sodipodi:type="inkscape:persp3d"
       inkscape:vp_x="0 : 290 : 1"
       inkscape:vp_y="0 : 1000 : 0"
       inkscape:vp_z="580 : 290 : 1"
       inkscape:persp3d-origin="290 : 193.33333 : 1"
       id="perspective2441" />
    <inkscape:perspective
       id="perspective3452"
       inkscape:persp3d-origin="30 : 20 : 1"
       inkscape:vp_z="60 : 30 : 1"
       inkscape:vp_y="0 : 1000 : 0"
       inkscape:vp_x="0 : 30 : 1"
       sodipodi:type="inkscape:persp3d" />
    <symbol
       viewBox="244.5 110 489 219.9"
       id="symbol-university">
      <path
         id="path4460"
         d="m 79,43 57,119 c 0,0 21,-96 104,-96 83,0 124,106 124,106 L 407,39 489,22 0,17 79,43 z"
         inkscape:connector-curvature="0" />
      <path
         id="path4462"
         d="M 94,176 73,215"
         inkscape:connector-curvature="0"
         style="fill:none;stroke:#000000;stroke-width:20" />
      <path
         id="path4464"
         d="M 300,19 C 300,29.5 277.4,38 249.5,38 221.6,38 199,29.5 199,19 199,8.5 221.6,0 249.5,0 277.4,0 300,8.5 300,19 z"
         inkscape:connector-curvature="0" />
      <path
         id="path4466"
         d="M 112,216 96,178 64,88 C 64,88 55,80 60,53 65,26 76,29 76,29"
         ill="none"
         inkscape:connector-curvature="0"
         style="stroke:#000000;stroke-width:20" />
    </symbol>
    <inkscape:perspective
       id="perspective4471"
       inkscape:persp3d-origin="372.04724 : 350.78739 : 1"
       inkscape:vp_z="744.09448 : 526.18109 : 1"
       inkscape:vp_y="0 : 1000 : 0"
       inkscape:vp_x="0 : 526.18109 : 1"
       sodipodi:type="inkscape:persp3d" />
    <inkscape:perspective
       id="perspective4668"
       inkscape:persp3d-origin="6 : 4 : 1"
       inkscape:vp_z="12 : 6 : 1"
       inkscape:vp_y="0 : 1000 : 0"
       inkscape:vp_x="0 : 6 : 1"
       sodipodi:type="inkscape:persp3d" />
  </defs>
  <path
     style="color:#000000;font-style:normal;font-variant:normal;font-weight:normal;font-stretch:normal;font-size:medium;line-height:normal;font-family:Sans;-inkscape-font-specification:Sans;text-indent:0;text-align:start;text-decoration:none;text-decoration-line:none;letter-spacing:normal;word-spacing:normal;text-transform:none;direction:ltr;block-progression:tb;writing-mode:lr-tb;baseline-shift:baseline;text-anchor:start;display:inline;overflow:visible;visibility:visible;opacity:0.804;fill:#ebe7e4;fill-opacity:1;stroke:none;stroke-width:150;marker:none;enable-background:accumulate"
     d="m 8.4656436,1.2648608 c -0.096842,-3.299e-4 -0.2020901,0.00788 -0.312218,0.021764 l 0,-0.00249 c -0.027098,0.00318 -0.053528,0.00841 -0.080361,0.012555 -0.010987,0.00177 -0.020696,0.00222 -0.03182,0.00417 l 0,8.656e-4 C 7.1166207,1.458357 6.3575612,2.1830109 6.1378191,3.0376556 6.0713287,3.2962547 6.0680698,3.5891239 6.1177117,3.8855353 L 4.7792793,4.8899337 C 4.428363,5.1534804 4.1678207,5.5351487 4.0502131,5.9579442 L 3.6116005,7.5340126 c -0.076231,0.274875 -0.093002,0.5660759 -0.048839,0.8478867 0.044164,0.2818098 0.1492166,0.5539202 0.3058815,0.7923016 0.3133343,0.4767608 0.8385082,0.8085234 1.4036519,0.8867101 l 0.018428,0.232686 -0.8303519,1.796198 c 0,0 -0.4664951,1.582923 0.965171,2.404116 1.4316618,0.821192 2.6809924,-0.717563 2.6809924,-0.717563 l 0.3984339,-0.861272 c 0,0 0.6523493,2.13455 2.3981763,1.622242 1.745826,-0.512309 1.252169,-2.343735 1.252169,-2.343735 L 11.64472,9.6089313 C 11.493638,9.1432366 11.272216,9.6788796 11.990185,8.8490037 12.300737,8.4795647 12.471327,7.99525 12.46086,7.512747 12.450379,7.030244 12.258948,6.5537852 11.932664,6.1981625 l -1.407076,-1.534219 c 0.250418,-0.4559299 0.378251,-1.0200609 0.231027,-1.6187547 l 0.0027,-8.656e-4 c -0.0069,-0.028586 -0.01579,-0.055021 -0.02342,-0.082863 -0.0036,-0.013176 -0.006,-0.026131 -0.01003,-0.039339 l -8.57e-4,0 C 10.390405,1.7717013 9.4082681,1.2683681 8.4667131,1.2648668 c -3.317e-4,0 -4.542e-4,0 -9.427e-4,0 z"
     id="path5329-1"
     inkscape:connector-curvature="0"
     sodipodi:nodetypes="ccccccsccccssccczcczcccscccccccccc" />
</svg>

<svg width="16" height="16" viewBox="0 0 16 16" fill="none" xmlns="http://www.w3.org/2000/svg">
<path opacity="0.804" d="M8.46564 1.26484C8.3688 1.26451 8.26355 1.27272 8.15342 1.28661V1.28412C8.12632 1.2873 8.09989 1.29253 8.07306 1.29667C8.06207 1.29844 8.05236 1.29889 8.04124 1.30084V1.30171C7.11662 1.45834 6.35756 2.18299 6.13782 3.03764C6.07133 3.29624 6.06807 3.5891 6.11771 3.88552L4.77928 4.88991C4.42836 5.15346 4.16782 5.53513 4.05021 5.95792L3.6116 7.53399C3.53537 7.80887 3.51859 8.10007 3.56276 8.38188C3.60692 8.66369 3.71197 8.9358 3.86864 9.17418C4.18197 9.65094 4.70715 9.9827 5.27229 10.0609L5.29072 10.2936L4.46037 12.0898C4.46037 12.0898 3.99387 13.6727 5.42554 14.4939C6.8572 15.3151 8.10653 13.7763 8.10653 13.7763L8.50496 12.9151C8.50496 12.9151 9.15731 15.0496 10.9031 14.5373C12.649 14.025 12.1553 12.1936 12.1553 12.1936L11.6447 9.60891C11.4936 9.14322 11.2722 9.67886 11.9902 8.84898C12.3007 8.47955 12.4713 7.99523 12.4609 7.51273C12.4504 7.03022 12.2589 6.55377 11.9327 6.19814L10.5256 4.66392C10.776 4.20799 10.9038 3.64386 10.7566 3.04517L10.7593 3.0443C10.7524 3.01572 10.7435 2.98928 10.7359 2.96144C10.7323 2.94826 10.7299 2.93531 10.7259 2.9221H10.725C10.3904 1.77168 9.40826 1.26835 8.46671 1.26485C8.46638 1.26485 8.46626 1.26485 8.46577 1.26485L8.46564 1.26484Z" fill="#EBE7E4"/>
</svg>
